X:1
T:Title
%%score 1 2 3
L:1/8
M:2/2
K:C
V:1 treble-8 nm="Part_1"
V:2 bass nm="Part_2"
V:3 bass nm="Part_3"
V:1
 z8 | z8 |[M:4/2] G3 D F2 ^C2 DE F2 E2 A2- |[M:3/2] A2 G2 A8 |[M:4/2] z8 z2 A3 ^F F2 | %5
w: ||Pre- pa- ra- te cor- da ve- stra Do-|* mi- no|Pre- pa- ra-|
[M:2/2] G2 EG A2 c2 | B/c/d/c/B/A/G/F/ E3/2 D/E/F/G/E/ | ^F G2 F G4 |[M:6/2] z12 z12 | z12 G8 E4 | %10
w: te cor- da ve- stra|Do- * * * * * * * * * * * * *|* * mi- no||et ser-|
 F8 D4 E2 D2 E2 F2 G4 | A12 B6 ^c2 d2 B2 |[M:3/2] ^c4 d6 c2 |[M:2/2] d/A/B/^c/dB A4 | %14
w: i- te il- * * * *|li so- * * *||li li- * be- ra- bit vos|
 z/ E/E/F/GE D4 | z2 z/ d/c/B/ cc B/B/B/B/ | A3 A G2 z G |[M:3/2] c>BAA d>c B2 z2 z G | %18
w: et li- be- ra- bit vos|et li- be- ra- bit vos et li- be-|ra- bit vos de|ma- ni- bus de ma- ni- bus i-|
 Bc d/c/B/A/ Gc/c/ B/cB/ c4 |[M:6/2] ^c8 d4 B6 B2 B4 | c8 c4 B6 B2 A4 |[M:3/2] A4 _B8 | %22
w: i- mi- co- * * * * rum ve- stro- * * rum|con- ver- ti- mi- ni|con- ver- ti- mi- ni|ad e-|
[M:2/2] A/A/B/^c/ d3 B A2 | G/d/B/c/dB AG z d | c>cB>B A2 G2 | z2 z G F>FE>E | D/E/F/G/ A2 DAG>G | %27
w: um in to- to cor- * deve-|tro in to- to cor- de ve- stro in|to- to cor- de ve- stro|in to- to cor- de|ve- * * * * stro in to- to|
[M:3/2] ^F G2 F G2 z d2 A2 c- |[M:2/2] cG B/A/B/c/ d3/2c/4B/4 A2 |[M:3/2] GE/E/ ^F/GF/ G4 z2 z G | %30
w: cor- de ve- stro et au- fer|* te De- * * * * * * *|os a- li- e- * * nos de|
[M:2/2] c3 B/A/ B2 A2 | z Ad>c B2 A2 |[M:4/2] G4 d4 B4 c2 c2 |[M:3/2] d4 G2 d2 c4- | %34
w: me- di- o ve- stri|de me- di- o ve-|stri de me- di- o|ve- stri de me-|
[M:4/2] c2 BB A4 G8 |] %35
w: * di- o ve- stri|
V:2
 G,3 D, F,2 ^C,2 | D,B,, A,,2 G,,G,3/2 F,/E,/D,/ |[M:4/2] C,2 B,,2 A,,3 A,, D,4 z4 | %3
w: Pre- pa- ra- te|cor- da ve- stra Do- * * *|* * * mi- no|
[M:3/2] z4 z2 A,3 ^F, F,2 |[M:4/2] G,2 G,F, E,4 D,8 |[M:2/2] C,3 B,, A,,2 A,,2 | %6
w: Pre- pa- ra-|te cor- da ve- stra|Do\-- * * mi-|
 G,,G,3/2 F,/E,/D,/ C,3/2 B,,/C,/D,/E,/C,/ | D, C,/B,,/A,,A,, G,,4 |[M:6/2] G,8 E,4 F,8 D,4 | %9
w: no Do\-- * * * * * * * * *|* * * * mi- no|et ser- vi- te|
 E,2 D,2 E,2 F,2 G,4 C,12 | D,8 B,,4 C,8 G,,4 | D,2 C,2 D,2 E,2 ^F,4 G,12 |[M:3/2] E,12 | %13
w: il- * * * * li|et ser- vi- te|il- * * * * li|so-|
[M:2/2] D,4 z/ A,,/B,,/^C,/D,B,, | A,,2 z/ G,,/G,,/A,,/ B,,G,, D,/D,/C,/B,,/ | %15
w: li et Li- be- ra- bit|vos et li- be- ra- bit vos et li- be-|
 C,C, B,,/B,,/A,,/G,,/ A,,/B,,/C,/D,<E,D,/ | ^C,2 D,2 G,,G,,=C,>B,, | %17
w: ra- bit vos et li- be- ra- * * * * *|* bit vos de ma- ni-|
[M:3/2] A,,A,,D,>C, B,,3 G,, B,,C, D,/C,/B,,/A,,/ | G,,C,/C,/ G,,2 C,C,G,G,, C,4 | %19
w: bus de ma- ni- bus i- ni- mi- co- * * *|* rum ve- stro- rum ve- stro- * rum|
[M:6/2] A,,8 D,4 G,,6 G,,2 G,,4 | C,8 A,,4 E,6 E,2 A,,4 |[M:3/2] D,4 G,4 G,,4 | %22
w: con- ver- ti- mi- ni|con- ver- ti- mi- ni|ad e- *|
[M:2/2] D,2 z/ D,/E,/^F,/ G,G,, D,2 | G,,4 z/ D,/B,,/C,/D,B,, | A,,2 G,,2 z2 z G, | %25
w: um in to- to cor- de ve-|stro in to- to cor- de|ve- stro in|
 F,>F,E,>E, D,2 C,C, | B,,>B,,A,,>A,, G,,A,,B,,C, |[M:3/2] D,4 G,,2 G,2 D,2 F,2 | %28
w: to- to cor- de ve- stro in|to- to cor- de ve- * * *|* stro et au- fer-|
[M:2/2] C,2 G,,3/2 A,,/B,,/A,,/B,,/C,/ D,2 |[M:3/2] G,,C,/C,/ A,,2 G,,G,, C,3 B,,/A,,/ B,,2 | %30
w: te de- * * * * * *|os a- li- e- nos de me- di\-o * ve-|
[M:2/2] A,,4 z2 z A,, | D,>C, B,,2 G,,/A,,/B,,/C,/ D,2 |[M:4/2] G,,8 z8 |[M:3/2] D,4 B,,4 C,2 C,2 | %34
w: stri de|me- di- o ve- * * * *|stri|de me- di- o|
[M:4/2] D,8 G,,8 |] %35
w: ve- stri|
V:3
 G,3 D, F,2 ^C,2 | D,B,, A,,2 G,, G,>F,E,/D,/ |[M:4/2] C,2 B,,2 A,,2 A,,2 D,4 A,,4 | %3
[M:3/2] E,4 A,,2 A,3 ^F, F,2 |[M:4/2] G,2 G,F, E,4 D,8 |[M:2/2] C,3 B,, A,,2 A,,2 | %6
 G,, G,>F,E,/D,/ C,4 | D,C,/B,,/ A,,2 G,,4 |[M:6/2] G,8 E,4 F,8 D,4 | E,2 D,2 E,2 F,2 G,4 C,12 | %10
 D,8 B,,4 C,8 G,,4 | D,2 C,2 D,2 E,2 ^F,4 G,12 |[M:3/2] E,12 |[M:2/2] D,4 A,,2 D,B,, | %14
 A,,2 G,,2 G,,G,,D,/D,/C,/B,,/ | C,C,B,,/B,,/A,,/G,,/ A,,2 E,>D, | ^C,2 D,2 G,,G,,=C,>B,, | %17
[M:3/2] A,,A,,D,>C, B,,3 G,,B,,C, D,/C,/B,,/A,,/ | G,,C, G,,2 C,2 G,,2 C,4 | %19
[M:6/2] A,,8 D,4 G,,6 G,,2 G,,4 | C,8 A,,4 E,6 E,2 A,,4 |[M:3/2] D,4 G,4 G,,4 | %22
[M:2/2] D,2 z/ D,/E,/^F,/G,G,, D,2 | G,,4 D,/D,/B,,/C,/D,B,, | A,,2 G,,2 D,2 G,,G, | %25
 F,>F,E,>E, D,2 C,C, | B,,>B,,A,,>A,,G,,A,,B,,C, |[M:3/2] D,4 G,,2 G,2 D,2 F,2 | %28
[M:2/2] C,2 G,,>A,,B,,/A,,/B,,/C,/ D,2 |[M:3/2] G,,C, A,,2 G,,G,, C,3 B,,/A,,/ B,,2 | %30
[M:2/2] A,,4 E,2 A,,A,, | D,>C, B,,2 G,,/A,,/B,,/C,/ D,2 |[M:4/2] G,,8 G,,4 C,2 F,2 | %33
[M:3/2] D,4 B,,4 C,2 C,2 |[M:4/2] D,8 G,,8 |] %35

